icons/square/48/latexdraw.svg

<svg width="48" height="48" version="1.1" viewBox="0 0 48 48.000001" xmlns="http://www.w3.org/2000/svg">
 <defs>
  <linearGradient id="linearGradient4501" x1="-47" x2="-1" y1="2.8779e-15" y2="6.1232e-17" gradientUnits="userSpaceOnUse">
   <stop style="stop-color:#e4e4e4" offset="0"/>
   <stop style="stop-color:#eee" offset="1"/>
  </linearGradient>
 </defs>
 <g transform="translate(0 3.949e-5)">
  <path d="m1 43v0.25c0 2.216 1.784 4 4 4h38c2.216 0 4-1.784 4-4v-0.25c0 2.216-1.784 4-4 4h-38c-2.216 0-4-1.784-4-4zm0 0.5v0.5c0 2.216 1.784 4 4 4h38c2.216 0 4-1.784 4-4v-0.5c0 2.216-1.784 4-4 4h-38c-2.216 0-4-1.784-4-4z" style="opacity:.02"/>
  <path d="m1 43.25v0.25c0 2.216 1.784 4 4 4h38c2.216 0 4-1.784 4-4v-0.25c0 2.216-1.784 4-4 4h-38c-2.216 0-4-1.784-4-4z" style="opacity:.05"/>
  <path d="m1 43v0.25c0 2.216 1.784 4 4 4h38c2.216 0 4-1.784 4-4v-0.25c0 2.216-1.784 4-4 4h-38c-2.216 0-4-1.784-4-4z" style="opacity:.1"/>
 </g>
 <rect transform="rotate(-90)" x="-47" y="1" width="46" height="46" rx="4" style="fill:url(#linearGradient4501)"/>
 <path d="m8.002 1v5.5l-2e-3 0.00195v0.5h-7v1.002l7-0.00195v7h-7v1h6.998v7h-6.998v1h6.998v7h-6.998v1h6.998v7l-6.998-2e-3v1.002h7v6.998h1l-0.0019-5.5645 0.0039 0.0039v-1.4375h6.9961v6.998h1.0039v-6.9961h6.9961v6.9961h1v-6.998h7v6.998h1v-6.9961l7-0.0039v0.5l2e-3 -2e-3v6.502h1v-7h6v-1h-6l-2e-3 -6.9961h6.002v-1.0039h-6.002v-6.9961h6.002v-1.0039h-6.002v-6.9961h6.002v-1.0039h-6l2e-3 -6.9961h5.998v-1h-5.998v-6.0039h-1v5.5098l-0.0059-0.00586v0.5l-6.9961-0.00391v-6h-1.0039v6.002h-6.9961v-6.002h-1v6h-7v-6h-1v6.002h-7v-1.4395l2e-3 -4.5625h-1zm1 7.0039h6.998v6.9961h-6.998zm8 0h6.998v6.9961h-6.998zm8 0h6.998v6.9961h-6.998zm8 0h6.998v6.9961h-6.998zm-24 8h6.998v6.9961h-6.998zm8 0h6.998v6.9961h-6.998zm8 0h6.998v6.9961h-6.998zm8 0h6.998v6.9961h-6.998zm-24 8h6.998v6.9961h-6.998zm8 0h6.998v6.9961h-6.998zm8 0h6.998v6.9961h-6.998zm8 0h6.998v6.9961h-6.998zm-24 8h6.998v6.9961h-6.998zm8 0h6.998v6.9961h-6.998zm8 0h6.998v6.9961h-6.998zm8 0h6.998v6.9961h-6.998z" style="fill:#a0dad0"/>
 <g transform="translate(0 3.949e-5)">
  <g transform="translate(0 -1004.4)">
   <path d="m1 1043.4v4c0 2.216 1.784 4 4 4h38c2.216 0 4-1.784 4-4v-4c0 2.216-1.784 4-4 4h-38c-2.216 0-4-1.784-4-4z" style="opacity:.1"/>
  </g>
 </g>
 <path d="m16 13v13l4.02-2e-3c0.075 1.291 0.438 2.576 1.117 3.752a0.5 0.5 0 1 0 0.865 -0.5c-0.589-1.02-0.898-2.134-0.973-3.252l7.969-2e-3v-7.963c1.117 0.075 2.231 0.382 3.25 0.971 2.942 1.698 4.373 5.156 3.494 8.438-0.879 3.281-3.847 5.559-7.244 5.559a0.5 0.5 0 0 0 -0.424 0.225l-4.08-1.221-12.434 2e-3s-0.563 0.243-0.563 1.496c0 1.209 0.633 1.498 0.633 1.498h12.363l4.08-1.223a0.5 0.5 0 0 0 0.424 0.223c3.845 0 7.214-2.587 8.209-6.301 0.249-0.928 0.334-1.869 0.27-2.789-0.194-2.761-1.731-5.33-4.229-6.771-1.174-0.678-2.46-1.042-3.75-1.117v-4.02h-13zm1 1h11v3.02c-2.026 0.12-4 0.961-5.512 2.473-1.51 1.51-2.35 3.481-2.471 5.506h-3.02v-10.996zm11 4.04v6.957h-6.961c0.119-1.764 0.837-3.48 2.156-4.799 1.321-1.321 3.038-2.04 4.805-2.158z" style="fill-opacity:.098"/>
 <g transform="translate(0,-1)">
  <path transform="rotate(90)" d="m29.502-21.571a8 8 0 0 1 -9.657 -1.271 8 8 0 0 1 -1.271 -9.657 8 8 0 0 1 8.999 -3.727 8 8 0 0 1 5.929 7.727" style="fill:none;stroke-linecap:round;stroke:#2d2d2d"/>
  <path d="m11.563 32.01s-0.563 0.243-0.563 1.496c0 1.209 0.633 1.499 0.633 1.499h12.363c0.548-1 0.481-2 0-2.997" style="fill:#202e64"/>
  <path d="m24 35 2.5-0.749c0.252-0.487 0.254-0.82 0-1.499l-2.5-0.749" style="fill:#e7ca87"/>
  <path d="m26.5 34.25 2.5-0.751-2.5-0.748" style="fill:#2d2d2d"/>
  <path d="m16 13v13l13-4e-3v-12.996m-12 1h11v10.996h-11" style="fill:#2d2d2d"/>
 </g>
</svg>

<svg width="48" height="48" viewBox="0 0 48 48.000001" xmlns="http://www.w3.org/2000/svg">
  <defs>
    <linearGradient id="a" x1="-47" x2="-1" gradientUnits="userSpaceOnUse">
      <stop offset="0" stop-color="#e4e4e4"/>
      <stop offset="1" stop-color="#eee"/>
    </linearGradient>
  </defs>
  <path d="M1 43v.25c0 2.216 1.784 4 4 4h38c2.216 0 4-1.784 4-4V43c0 2.216-1.784 4-4 4H5c-2.216 0-4-1.784-4-4zm0 .5v.5c0 2.216 1.784 4 4 4h38c2.216 0 4-1.784 4-4v-.5c0 2.216-1.784 4-4 4H5c-2.216 0-4-1.784-4-4z" opacity=".02"/>
  <path d="M1 43.25v.25c0 2.216 1.784 4 4 4h38c2.216 0 4-1.784 4-4v-.25c0 2.216-1.784 4-4 4H5c-2.216 0-4-1.784-4-4z" opacity=".05"/>
  <path d="M1 43v.25c0 2.216 1.784 4 4 4h38c2.216 0 4-1.784 4-4V43c0 2.216-1.784 4-4 4H5c-2.216 0-4-1.784-4-4z" opacity=".1"/>
  <rect transform="rotate(-90)" x="-47" y="1" width="46" height="46" rx="4" fill="url(#a)"/>
  <path d="M8.002 1v5.5L8 6.502v.5H1v1.002l7-.002v7H1v1h6.998v7H1v1h6.998v7H1v1h6.998v7L1 39v1.002h7V47h1l-.002-5.565.004.004v-1.437h6.996V47h1.004v-6.996h6.996V47h1v-6.998h7V47h1v-6.996l7-.004v.5l.002-.002V47h1v-7h6v-1h-6l-.002-6.996H47V31h-6.002v-6.996H47V23h-6.002v-6.996H47V15h-6l.002-6.996H47v-1h-5.998V1h-1v5.51l-.006-.006v.5L33 7V1h-1.004v6.002H25V1h-1v6h-7V1h-1v6.002H9v-1.44L9.002 1h-1zm1 7.004H16V15H9.002zm8 0H24V15h-6.998zm8 0H32V15h-6.998zm8 0H40V15h-6.998zm-24 8H16V23H9.002zm8 0H24V23h-6.998zm8 0H32V23h-6.998zm8 0H40V23h-6.998zm-24 8H16V31H9.002zm8 0H24V31h-6.998zm8 0H32V31h-6.998zm8 0H40V31h-6.998zm-24 8H16V39H9.002zm8 0H24V39h-6.998zm8 0H32V39h-6.998zm8 0H40V39h-6.998z" fill="#a0dad0"/>
  <path d="M1 39v4c0 2.216 1.784 4 4 4h38c2.216 0 4-1.784 4-4v-4c0 2.216-1.784 4-4 4H5c-2.216 0-4-1.784-4-4z" opacity=".1"/>
  <path d="M16 13v13l4.02-.002a8.465 8.465 0 0 0 1.117 3.752.5.5 0 1 0 .865-.5 7.475 7.475 0 0 1-.973-3.252l7.969-.002v-7.963a7.464 7.464 0 0 1 3.25.971 7.497 7.497 0 0 1 3.494 8.438 7.495 7.495 0 0 1-7.244 5.559.5.5 0 0 0-.424.225l-4.08-1.221-12.434.002s-.563.243-.563 1.496c0 1.209.633 1.498.633 1.498h12.363l4.08-1.223a.5.5 0 0 0 .424.223 8.503 8.503 0 0 0 8.479-9.09 8.503 8.503 0 0 0-4.229-6.771 8.466 8.466 0 0 0-3.75-1.117v-4.02h-13zm1 1h11v3.02a8.49 8.49 0 0 0-7.983 7.979h-3.02V14.003zm11 4.04v6.957h-6.961c.119-1.764.837-3.48 2.156-4.799 1.321-1.321 3.038-2.04 4.805-2.158z" fill-opacity=".098"/>
  <g>
    <path d="M21.571 28.502a8 8 0 0 1 1.271-9.657 8 8 0 0 1 9.657-1.271 8 8 0 0 1 3.727 8.999 8 8 0 0 1-7.727 5.929" fill="none" stroke-linecap="round" stroke="#2d2d2d"/>
    <path d="M11.563 31.01S11 31.253 11 32.506c0 1.209.633 1.499.633 1.499h12.363c.548-1 .481-2 0-2.997" fill="#202e64"/>
    <path d="M24 34l2.5-.749c.252-.487.254-.82 0-1.499l-2.5-.749" fill="#e7ca87"/>
    <path d="M26.5 33.25l2.5-.751-2.5-.748M16 12v13l13-.004V12m-12 1h11v10.996H17" fill="#2d2d2d"/>
  </g>
</svg>
